X:1
T:Occhi amorosi-O begl'occhi
T:Giovanni Stefani
T:Source : Affetti amorosi-Canzonette ad una voce sola---Venetia---A.Vincenti---1621. Editor : André Vierendeels (09/11/15).
T:Notes : Original clefs : C1, F4 Editorial accidentals above the staff Alfabetto et intavolatura per chitarra Spagnola Terza impressione (first print 1618)
T:O begl'occhi, o chiare-Occhi amorosi
C:Giovanni Stefani
%%score 1 { ( 2 3 ) | 4 }
L:1/8
Q:1/4=84
M:4/4
K:C
V:1 treble nm="Soprano" snm="S"
V:2 treble nm="MusicXML Part"
V:3 treble 
V:4 bass 
V:1
 B2 B2 d4- | d2 B2 c2 A2 | BAGA B2 A2 | G2 ^F2 G4- | G2 G2 G3 ^F |"^#" GFGA B2 A2 | B2 c2 d4- | %7
w: O begl' oc-|* chi'o chia- re|stel- * * * * le,|che del sol|_ via piu splen-|de- * * * * te,|del mio cor|
w: Ar- do'e mo-|* ro'in vi- vo'ar-|do- * * * * re,|ne dir pos-|* so'il mio mo-|ri- * * * * re,|ne sco- prir|
w: Lu- ci bel-|* le'oc- chi'a- mo-|ro- * * * * si,|vi- vi rag-|* gi'e bei splen-|do- * * * * ri,|dol- ci fiam-|
 d2 e2 e3 d | d4 d4 :: A2 B2 cBAB | c2 B2 c2 A2 | BAGA B2 A2 |"^-natural" G2 F2 GFEF | G3 A A3 G | %14
w: _ fia- mel- le|se- te.|Deh per- che _ _ _|_ non pos- s'io|di- * * * * re,|del mio cor _ _ _|_ il gran mar-|
w: _ pos- so'il de|si- re.|Deh per- che _ _ _|_ non in- ten|de- * * * * te,|del mio cor _ _ _|_ l'a- vi- da|
w: * m'e gra- ti'ar-|do- ri.|Deh mi- ra- * * *|* te que- sto|co- * * * * re,|che si strug- * * *|* ge pet a-|
 G4 G4 :| %15
w: ti- re.|
w: se- te.|
w: mo- re.|
V:2
 B4 A4- | A2 G2 c2 d2 | B6 A2 | G2 A2 c4- | c2 G2 A2 d2 | B6 A2 | G2 A2 A4 | G4 AB ^c2 | [Ad]8 :: %9
 A2 d2 A2 c2 | A2 ^G2 A4 | B6 d2 | c2 A2 G4- | G4 A2 ^F2 | G8 :| %15
V:3
 D4 D4- | D4 E2 ^F2 | D6 D2 | E2 D2 E4- | E2 D2 D4 | D6 D2 | E4 ^F4 | D4 E4 | ^F8 :: F4 E4 | %10
 E6 D2 | D6 ^F2 | G2 F2 E2 D2 | E4 D4 | D8 :| %15
V:4
 G,4 ^F,4 | G,4 A,2 D,2 | G,6 F,2 | E,2 D,2 C,4- | C,2 B,,2 A,,4 | G,,4 G,2 !courtesy!^F,2 | %6
 E,4 D,4 | B,2 G,2 A,4 | D,8 :: D,4 A,,4 | A,2 ^G,2 A,2 ^F,2 | G,6 F,2 | E,2 D,2 C,2 D,2 | %13
 E,2 C,2 D,4 | G,,8 :| %15

